src/pos-icons/move-resize.svg

<svg height="24" viewBox="0 0 24 24" width="24" xmlns="http://www.w3.org/2000/svg"><path d="m9 1v1h1v3h-1v1h3v-1h-1v-3h1v-1m-3 6c-1.11 0-2 .89-2 2v12c0 1.11.89 2 2 2h12c1.11 0 2-.89 2-2v-12c0-1.11-.89-2-2-2m-20 2v3h1v-1h3v1h1v-3h-1v1h-3v-1m7 0h12v12h-12m5-11v1h1v5h-4v-1h-1v3h1v-1h4v2h-1v1h3v-1h-1v-2h3v1h1v-3h-1v1h-3v-5h1v-1"/></svg>

<?xml version="1.0" encoding="UTF-8"?><!DOCTYPE svg PUBLIC "-//W3C//DTD SVG 1.1//EN" "http://www.w3.org/Graphics/SVG/1.1/DTD/svg11.dtd"><svg xmlns="http://www.w3.org/2000/svg" xmlns:xlink="http://www.w3.org/1999/xlink" version="1.1" id="mdi-move-resize" width="24" height="24" viewBox="0 0 24 24"><path d="M9,1V2H10V5H9V6H12V5H11V2H12V1M9,7C7.89,7 7,7.89 7,9V21C7,22.11 7.89,23 9,23H21C22.11,23 23,22.11 23,21V9C23,7.89 22.11,7 21,7M1,9V12H2V11H5V12H6V9H5V10H2V9M9,9H21V21H9M14,10V11H15V16H11V15H10V18H11V17H15V19H14V20H17V19H16V17H19V18H20V15H19V16H16V11H17V10" /></svg>
